!! 00000] TT[WS
!!!OTL: Daqingshan gao
!!!ARE: Asia, China,ÿShanxi Hequ
!! Ethnic Group: Han
!! WI, 32 (2)
!!!SCT: J0035
!!!YEM: Copyright 1995, estate of Helmut Schaffrath.
**kern
*ICvox
*Ivox
*M2/4
*k[b-e-]
*B-:
{8.gg
16gg
8ff
8dd
=1
8.bb-
16ccc
16ddd
16fff
8ddd
=2
8.ccc
16bb-
8gg
16ddd
16ff
=3
2dd}
=4
{8.bb-
16ccc
8ddd
8fff
=5
8gg
8fff
16gg
16ff
8dd
=6
8.b-
16cc
16dd
16ff
8dd
=7
2g}
==
!!!AGN: Shange, Shanqu. Qingge
!!!ONB: ESAC (Essen Associative Code) Database: CHINA
!!!AMT: simple duple
!!!AIN: vox
!!!EED: Helmut Schaffrath
!!!EEV: 1.0
*-
